X:1
T: The Duke of Gordon
C:Niel Gow
R:Strathspey
Q: 128
K:D
M:4/4
L:1/16
|:FE|D3A, B,3A, D3B, A,3F|G3E F3D B,4 B,2FE|D3A, B,3A, D3B, A,3B|A3F E3F D6 FE|
D3A, B,3A, D3B, A,3F|G3E F3D B,4 B,2FE|D3A, B,3A, D3B, A,3B|A3F E3F D6 Bc|
d3A B3F A3F D3F|G3E F3D B,4 -B,2Bc|d3A B3F A3F D3F|G3E A3F D4- D2Bc|
d3A B3F A3F D3F|G3E F3D B,4- B,2FE|D3A, B,3A, D3B, A,3B|A3F E3F D6:|

